X: 37
T: 
C: Armand Aromin
H: 4/14/05
M: 6/8
L: 1/8
R: Jig
K: Ador
eBe g2 e | dBA ABd | eBe g2 e | dBG GBd |
eBe g2 e | dBA AGE | GAB dge | dBA A3 :|
